X:111
T:le P'tit bal \`a l'huile
C:Marcel Messervier
Z:robin.beech@mcgill.ca
M:4/4
L:1/8
K:D
DEFG AAFA | BAFA ddDD | CDEF GECE | DFBF ABAF |
DEFG AAFA | BAFA ddDD | CDEF GECE |1 DFEC D4 :|2 DFEC D2 zd || dedc |:
B2GB dGBd | G2d2 c2B2 | A2FA dFAd | A2F2 E2D2 | 
C2AA CAAC | AAGG F2E2 | DDdA BAFD | A3d dedc | 
B2GB dGBd | G2d2 c2B2 | A2FA dFAd |1 A2F2 E2D2 | C2AA CAAC | AAGGF2E2 | D2EF GABc |
d2z f fedc :|2 A3f e2d2 | cAAA cAce | a2g2 f2e2 | dAAA BAFA | d4 |]

